src/22x22/places/folder-gruvbox-mix-yellow-linux.svg

<?xml version="1.0" encoding="UTF-8"?>
<svg width="22" height="22" version="1" xmlns="http://www.w3.org/2000/svg">
 <rect x="1" y="8.5" width="20" height="12" rx="1" ry="1" opacity=".2"/>
 <path d="m1 16c0 0.554 0.446 1 1 1h18c0.554 0 1-0.446 1-1v-11c0-0.554-0.446-1-1-1h-9c-1.5 0-2-2-3.5-2h-5.5c-0.554 0-1 0.446-1 1" fill="#b4730e"/>
 <rect x="1" y="7.5" width="20" height="12" rx="1" ry="1" opacity=".2"/>
 <rect x="3" y="6" width="16" height="8" rx="1" ry="1" fill="#fae7b3"/>
 <rect x="1" y="8" width="20" height="12" rx="1" ry="1" fill="#e9b143"/>
 <path d="m2 2c-0.554 0-1 0.446-1 1v0.5c0-0.554 0.446-1 1-1h5.5c1.5 0 2 2 3.5 2h9c0.554 0 1 0.446 1 1v-0.5c0-0.554-0.446-1-1-1h-9c-1.5 0-2-2-3.5-2z" fill="#fae7b3" opacity=".1"/>
 <path d="m11.88 15.037c-0.56 0.26-1.081 0.258-1.431 0.232-0.417-0.03-0.7528-0.144-0.9003-0.244-0.0909-0.061-0.2145-0.038-0.2761 0.053-0.0615 0.091-0.0377 0.215 0.0532 0.276 0.2371 0.161 0.6566 0.28 1.0952 0.312 0.074 5e-3 0.155 9e-3 0.243 9e-3 0.381 0 0.866-0.037 1.384-0.278 0.099-0.046 0.142-0.164 0.096-0.264-0.046-0.099-0.165-0.142-0.264-0.096zm2.21-0.295c0.019-1.727 0.196-4.9907-3.11-4.727-3.2645 0.263-2.3989 3.711-2.4476 4.866-0.0431 0.611-0.2459 1.358-0.5324 2.118h0.8824c0.0907-0.322 0.1574-0.641 0.1861-0.944 0.0532 0.037 0.1101 0.073 0.1709 0.107 0.0988 0.058 0.1836 0.136 0.2736 0.218 0.2101 0.191 0.4484 0.408 0.914 0.435 0.031 2e-3 0.063 3e-3 0.093 3e-3 0.471 0 0.793-0.206 1.052-0.372 0.124-0.079 0.231-0.147 0.332-0.18 0.287-0.09 0.537-0.235 0.724-0.419 0.029-0.029 0.056-0.058 0.082-0.089 0.104 0.382 0.247 0.812 0.405 1.241h1.884c-0.452-0.699-0.919-1.383-0.909-2.257zm-5.2416-0.939-1e-4 -1e-3c-0.0324-0.563 0.2373-1.037 0.6024-1.059 0.3651-0.021 0.6873 0.419 0.7193 0.983h1e-3c1e-3 0.03 2e-3 0.06 2e-3 0.09-0.116 0.029-0.22 0.071-0.3135 0.121-4e-4 -5e-3 -7e-4 -9e-3 -0.0011-0.013-0.0313-0.32-0.2021-0.562-0.3818-0.54-0.1795 0.022-0.2998 0.299-0.2686 0.619 0.0136 0.14 0.0538 0.265 0.1097 0.359-0.014 0.011-0.0533 0.04-0.0985 0.073-0.034 0.025-0.0753 0.055-0.1252 0.092-0.1359-0.179-0.229-0.435-0.2457-0.724zm3.6986 1.393c-0.013 0.298-0.403 0.578-0.762 0.69l-3e-3 1e-3c-0.149 0.049-0.283 0.134-0.424 0.225-0.237 0.151-0.483 0.309-0.837 0.309-0.024 0-0.048-1e-3 -0.071-3e-3 -0.325-0.019-0.4767-0.157-0.6689-0.332-0.1016-0.093-0.2065-0.188-0.3416-0.268l-0.0029-1e-3c-0.292-0.165-0.4732-0.37-0.4848-0.548-0.0057-0.089 0.0338-0.166 0.1175-0.229 0.182-0.136 0.304-0.225 0.3846-0.284 0.0897-0.066 0.1168-0.086 0.1367-0.105 0.0144-0.013 0.0298-0.028 0.0465-0.045 0.1672-0.162 0.4469-0.434 0.8759-0.434 0.263 0 0.553 0.101 0.862 0.3 0.146 0.095 0.273 0.139 0.434 0.194 0.11 0.038 0.235 0.081 0.403 0.153l3e-3 1e-3c0.156 0.065 0.341 0.182 0.332 0.376zm-0.086-0.7c-0.03-0.015-0.061-0.029-0.094-0.043-0.151-0.065-0.272-0.108-0.373-0.143 0.056-0.109 0.09-0.245 0.093-0.392 8e-3 -0.358-0.172-0.648-0.403-0.649-0.23-1e-3 -0.423 0.289-0.431 0.647v0.035c-0.142-0.065-0.282-0.112-0.418-0.142-1e-3 -0.013-2e-3 -0.027-2e-3 -0.04-0.013-0.653 0.387-1.192 0.894-1.206s0.928 0.504 0.942 1.156c5e-3 0.295-0.073 0.567-0.208 0.777z" fill="#4f422e"/>
</svg>

<svg xmlns="http://www.w3.org/2000/svg" width="22" height="22" version="1">
 <rect style="opacity:0.2" width="20" height="12" x="1" y="8.5" rx="1" ry="1"/>
 <path style="fill:#b4730e" d="M 1,16 C 1,16.554 1.446,17 2,17 H 20 C 20.554,17 21,16.554 21,16 V 5 C 21,4.446 20.554,4 20,4 H 11 C 9.5,4 9,2 7.5,2 H 2 C 1.446,2 1,2.446 1,3"/>
 <rect style="opacity:0.2" width="20" height="12" x="1" y="7.5" rx="1" ry="1"/>
 <rect style="fill:#fae7b3" width="16" height="8" x="3" y="6" rx="1" ry="1"/>
 <rect style="fill:#e9b143" width="20" height="12" x="1" y="8" rx="1" ry="1"/>
 <path style="opacity:0.1;fill:#fae7b3" d="M 2,2 C 1.446,2 1,2.446 1,3 V 3.5 C 1,2.946 1.446,2.5 2,2.5 H 7.5 C 9,2.5 9.5,4.5 11,4.5 H 20 C 20.554,4.5 21,4.946 21,5.5 V 5 C 21,4.446 20.554,4 20,4 H 11 C 9.5,4 9,2 7.5,2 Z"/>
 <path style="fill:#4f422e" d="M 11.88,15.037 C 11.32,15.297 10.799,15.295 10.449,15.269 10.032,15.239 9.6962,15.125 9.5487,15.025 9.4578,14.964 9.3342,14.987 9.2726,15.078 9.2111,15.169 9.2349,15.293 9.3258,15.354 9.5629,15.515 9.9824,15.634 10.421,15.666 10.495,15.671 10.576,15.675 10.664,15.675 11.045,15.675 11.53,15.638 12.048,15.397 12.147,15.351 12.19,15.233 12.144,15.133 12.098,15.034 11.979,14.991 11.88,15.037 Z M 14.09,14.742 C 14.109,13.015 14.286,9.7513 10.98,10.015 7.7155,10.278 8.5811,13.726 8.5324,14.881 8.4893,15.492 8.2865,16.239 8,16.999 H 8.8824 C 8.9731,16.677 9.0398,16.358 9.0685,16.055 9.1217,16.092 9.1786,16.128 9.2394,16.162 9.3382,16.22 9.423,16.298 9.513,16.38 9.7231,16.571 9.9614,16.788 10.427,16.815 10.458,16.817 10.49,16.818 10.52,16.818 10.991,16.818 11.313,16.612 11.572,16.446 11.696,16.367 11.803,16.299 11.904,16.266 12.191,16.176 12.441,16.031 12.628,15.847 12.657,15.818 12.684,15.789 12.71,15.758 12.814,16.14 12.957,16.57 13.115,16.999 H 14.999 C 14.547,16.3 14.08,15.616 14.09,14.742 Z M 8.8484,13.803 C 8.8484,13.803 8.8484,13.803 8.8483,13.802 8.8159,13.239 9.0856,12.765 9.4507,12.743 9.8158,12.722 10.138,13.162 10.17,13.726 10.17,13.726 10.171,13.726 10.171,13.726 10.172,13.756 10.173,13.786 10.173,13.816 10.057,13.845 9.953,13.887 9.8595,13.937 9.8591,13.932 9.8588,13.928 9.8584,13.924 V 13.924 C 9.8271,13.604 9.6563,13.362 9.4766,13.384 9.2971,13.406 9.1768,13.683 9.208,14.003 9.208,14.003 9.208,14.003 9.208,14.003 9.2216,14.143 9.2618,14.268 9.3177,14.362 9.3037,14.373 9.2644,14.402 9.2192,14.435 9.1852,14.46 9.1439,14.49 9.094,14.527 8.9581,14.348 8.865,14.092 8.8483,13.803 Z M 12.547,15.196 C 12.534,15.494 12.144,15.774 11.785,15.886 L 11.782,15.887 C 11.633,15.936 11.499,16.021 11.358,16.112 11.121,16.263 10.875,16.421 10.521,16.421 10.497,16.421 10.473,16.42 10.45,16.418 10.125,16.399 9.9733,16.261 9.7811,16.086 9.6795,15.993 9.5746,15.898 9.4395,15.818 L 9.4366,15.817 C 9.1446,15.652 8.9634,15.447 8.9518,15.269 8.9461,15.18 8.9856,15.103 9.0693,15.04 9.2513,14.904 9.3733,14.815 9.4539,14.756 9.5436,14.69 9.5707,14.67 9.5906,14.651 9.605,14.638 9.6204,14.623 9.6371,14.606 9.8043,14.444 10.084,14.172 10.513,14.172 10.776,14.172 11.066,14.273 11.375,14.472 11.521,14.567 11.648,14.611 11.809,14.666 11.919,14.704 12.044,14.747 12.212,14.819 L 12.215,14.82 C 12.371,14.885 12.556,15.002 12.547,15.196 Z M 12.461,14.496 C 12.431,14.481 12.4,14.467 12.367,14.453 12.216,14.388 12.095,14.345 11.994,14.31 12.05,14.201 12.084,14.065 12.087,13.918 V 13.918 C 12.095,13.56 11.915,13.27 11.684,13.269 11.454,13.268 11.261,13.558 11.253,13.916 V 13.916 C 11.253,13.928 11.253,13.94 11.253,13.951 11.111,13.886 10.971,13.839 10.835,13.809 10.834,13.796 10.833,13.782 10.833,13.769 V 13.769 C 10.82,13.116 11.22,12.577 11.727,12.563 12.234,12.549 12.655,13.067 12.669,13.719 V 13.719 C 12.674,14.014 12.596,14.286 12.461,14.496 Z"/>
</svg>
